!!!!SEGMENT: pl-kk--kk-i-66--001_anonim--missa-salve-sancta-parens.krn
!!!cenid: 17xx:2258
!!!COM: Anonim
!!!COM-rismid: pe30004985
!!!CDT:
!!!CNT:
!!!OPR: Missa
!!!OTL: Salve sancta parens
!!!OMV: 001
!!!PDT:
!!!AGN: Sacred; Mass
!!!SMS-siglum: PL-Kk
!!!SMS-shelfmark: Kk.I.66
!!!SMS-shelfwork: 001-001 M
!!!SMS-variant: Baſso PL-Kk KK.I.66:0011
!!!SMS-altvar: Baſso PL-Kk KK.I.66:0016
!!!NIFC-rismid: 1001154622
!!!URL-scan: http://repozytorium.nifc.pl/skany/pl-kk-nut--i-66
!!!ONB-nifc: UWAGA: części Mszy: 1. Salve sancta parens, 2. Kyrie, 3. Et in terra,
!!!AIN: 1 empty 2 tenor
!!!key:
**kern	**text	**kern	**text	**kern	**text
*part3	*part3	*part2	*part2	*part1	*part1
*staff3	*staff3	*staff2	*staff2	*staff1	*staff1
*Iempty	*	*Itenor	*	*Itenor	*
*I"Baſso	*	*I"Tenore Secundo.	*	*I"Tenore Primo	*
*I'B	*	*I'T 2	*	*I'T 1	*
*clefF4	*	*clefC4	*	*clefC4	*
*k[]	*	*k[]	*	*k[]	*
*C:	*	*C:	*	*C:	*
*M2/2	*	*M2/2	*	*M2/2	*
*met(c|)	*	*met(c|)	*	*met(c|)	*
=1	=1	=1	=1	=1	=1
*	*	*	*	*2\right	*
4C/	Sal-	2G/	Sal-	2c\	Sal-
4D/	.	.	.	.	.
*	*	*2\right	*	*	*
4E/	.	2c\	.	2e\	.
4C/	.	.	.	.	.
=2	=2	=2	=2	=2	=2
1G	.	2B\	.	2d\	.
.	.	2d\	.	2f\	.
=3	=3	=3	=3	=3	=3
1C	-ve	1G	-ve	1e	ve
=4	=4	=4	=4	=4	=4
2C/	Sal-	2c\	sal-	2e\	Sal-
*2\right	*	*	*	*	*
2c\	.	2e\	.	2g\	.
=5	=5	=5	=5	=5	=5
1G	.	2d\	.	2f\	.
.	.	2B\	.	2d\	.
=6	=6	=6	=6	=6	=6
2C/	-ve	2c\	-ve	2e\	-ve
4E/	san-	4c\	san-	4e\	san-
4C/	-cta	4e\	-cta	4g\	-cta
=7	=7	=7	=7	=7	=7
1G	pa-	2d\	pa-	2f\	pa-
.	.	2c\	.	2e\	.
=8	=8	=8	=8	=8	=8
2G\	-rens	2B\	-rens	2d\	-rens
2r	.	2r	.	2r	.
!LO:LB:g=original	!	!LO:LB:g=original	!	!LO:LB:g=original	!
=9	=9	=9	=9	=9	=9
4G\	e-	4B\	e-	4d\	e-
4G\	-ni-	4c\	-ni-	4e\	-ni-
4G\	-xa	4d\	-xa	4f\	-xa
4G\	pu-	4B\	pu-	4d\	pu-
=10	=10	=10	=10	=10	=10
4.E/	-er-	4.c\	-er-	4.e\	-er-
8D/	-pe-	8d\	-pe-	8f\	-pe-
2C/	-ra	2e\	-ra	2g\	-ra
=11	=11	=11	=11	=11	=11
2.F\	Re-	4d\	Re-	4f\	Re-
.	.	4c\	.	4e\	.
.	.	4B\	.	4d\	.
4F#X\	.	4c\	.	4e\	.
=12	=12	=12	=12	=12	=12
2G\	-gem	2B\	-gem	2d\	-gem
2r	.	2r	.	2r	.
=13	=13	=13	=13	=13	=13
1G	qui	2B\	qui	2d\	qui
.	.	2c\	.	2e\	.
=14	=14	=14	=14	=14	=14
2G\	cae-	2d\	cae-	2f\	cae-
2G\	-lum	2B\	-lum	2d\	-lum
=15	=15	=15	=15	=15	=15
4E\	ter-	4c\	ter-	4e\	ter-
4D\	.	4d\	.	4f\	.
4C\	-ram	4e\	-ram	4g\	ram
4E\	que	4c\	que	4e\	que
!LO:LB:g=original	!	!LO:LB:g=original	!	!LO:LB:g=original	!
=16	=16	=16	=16	=16	=16
4F\	re-	4d\	re-	4f\	re-
4E\	.	4c\	.	4e\	.
4F\	.	4B\	.	4d\	.
4F#X\	.	4c\	.	4c\	.
=17	=17	=17	=17	=17	=17
2G\	-git	2B\	-git	2d\	-git
2G\	in	2d\	in	2f\	in
=18	=18	=18	=18	=18	=18
4c\	sae-	4c\	sae-	4e\	sae-
4G\	-cu-	4B\	-cu-	4d\	-cu-
2C/	-la	2c\	-la	2e\	-la
=19	=19	=19	=19	=19	=19
2BB/	sae-	2d\	sae-	2f\	sae-
2C/	-cu-	2c\	-cu-	2e\	-cu-
=20	=20	=20	=20	=20	=20
2.G\	-lo-	4B\	-lo-	4d\	-lo-
.	.	4c\	.	4e\	.
.	.	4B\	.	4d\	.
4F#X\	.	4A\	.	4c\	.
=21	=21	=21	=21	=21	=21
2G\	-rum	2G/	-rum	2B\	-rum
2E\	al-	2c\	al-	2g\	al-
=22	=22	=22	=22	=22	=22
2F\	-le-	2A\	-le-	2f\	-le-
2G\	-lu-	2B\	-lu-	2d\	-lu-
!LO:LB:g=original	!	!LO:LB:g=original	!	!	!
=23	=23	=23	=23	=23	=23
2C/	-ia	2c\	-ia	2e\	-ia
4BB/	al-	4d\	al-	4f\	al-
4C/	.	4c\	.	4e\	.
!	!	!	!	!LO:LB:g=original	!
=24	=24	=24	=24	=24	=24
2G\	-le-	2f\	-le-	2d\	-le-
2c\	.	2e\	.	2c\	.
=25	=25	=25	=25	=25	=25
1G	-lu-	2e\	.	2c\	-lu-
.	.	2d\	-lu-	2B\	.
=26	=26	=26	=26	=26	=26
1C	-ia	1e	-ia	1c	-ia
!LO:LB:g=original	!	!LO:LB:g=original	!	!LO:LB:g=original	!
=27||	=27||	=27||	=27||	=27||	=27||
*M2/2	*	*M2/2	*	*M2/2	*
*met(c|)	*	*met(c|)	*	*met(c|)	*
2.C/	E-	2.G/	E-	2.e\	E-
4c\	-ruc-	4G/	-ruc-	4e\	-ruc-
=28	=28	=28	=28	=28	=28
2B\	-ta-	2G/	-ta-	2d\	-ta-
2c\	-vil	2G/	-vil	2e\	-vil
=29	=29	=29	=29	=29	=29
1G	cor	4d\	cor	4f\	cor
.	.	4c\	.	4e\	.
.	.	4d\	.	4f\	.
.	.	4B\	.	4d\	.
=30	=30	=30	=30	=30	=30
2E/	me-	2G/	me-	2e\	me-
2C/	-um	2G/	-um	2e\	-um
=31	=31	=31	=31	=31	=31
4C/	ver-	2G/	ver-	2e\	ver-
4E/	.	.	.	.	.
4G\	-bum	2G/	-bum	2e\	-bum
4c\	.	.	.	.	.
=32	=32	=32	=32	=32	=32
1G	bo-	2B\	bo-	2d\	bo-
.	.	4c\	.	4e\	.
.	.	4B\	.	4d\	.
=33	=33	=33	=33	=33	=33
1D	.	1A	.	1c	.
!	!	!	!	!LO:LB:g=original	!
=34	=34	=34	=34	=34	=34
2G\	-num	2d\	-num	2B\	-num
!	!	!LO:LB:g=original	!	!	!
=-	=-	=-	=-	=-	=-
4G\	di-	4d\	di-	4B\	di-
4G\	-co	4c\	-co	4c\	-co
!LO:LB:g=original	!	!	!	!	!
=35	=35	=35	=35	=35	=35
2G\	e-	2B\	e-	2d\	e-
2c\	-go	2c\	-go	2e\	-go
=36	=36	=36	=36	=36	=36
4G\	o-	4d\	o-	4f\	o-
4G\	-pe-	4c\	-pe-	4e\	-pe-
2G\	-ra	2B\	-ra	2d\	-ra
=37	=37	=37	=37	=37	=37
4C/	me-	4e\	me-	4g\	me-
4D/	.	4d\	.	4f\	.
2E\	-a	2c\	-a	2e\	-a
=38	=38	=38	=38	=38	=38
1G	Re-	2B\	Re-	2d\	Re-
.	.	2c\	.	2e\	.
=39	=39	=39	=39	=39	=39
1G	.	2c\	.	1d	.
.	.	2B\	.	.	.
=40	=40	=40	=40	=40	=40
1C	-gi	1c	-gi	1e	-gi
!LO:LB:g=original	!	!LO:LB:g=original	!	!LO:LB:g=original	!
=41||	=41||	=41||	=41||	=41||	=41||
*M2/2	*	*M2/2	*	*M2/2	*
*met(c|)	*	*met(c|)	*	*met(c|)	*
4C/	Glo-	2G/	Glo-	2e\	Glo-
4E/	.	.	.	.	.
4G\	-ri-	4G/	-ri-	4e\	-ri-
4c\	-a	4G/	-a	4e\	-a
=42	=42	=42	=42	=42	=42
2B\	Pa-	2G/	Pa-	2d\	Pa-
4B\	-tri	4G/	-tri	4d\	-tri
4c\	et	4G/	et	4e\	et
=43	=43	=43	=43	=43	=43
2.G\	fi-	2.d\	fi-	2.f\	fi-
4G\	-li-	4B\	-li-	4d\	-li-
=44	=44	=44	=44	=44	=44
2C/	-o	2c\	-o	2e\	-o
4C/	et	4c\	et	4e\	et
4C/	spi-	4c\	spi-	4e\	spi-
=45	=45	=45	=45	=45	=45
2G\	-ri-	2B\	-ri-	2d\	-ri-
4G\	-tu-	4c\	-tu-	4e\	-tu-
4G\	-i	4B\	-i	4d\	-i
=46	=46	=46	=46	=46	=46
1D	san-	1A	san-	1c	San-
=47	=47	=47	=47	=47	=47
2G\	-cto	2G/	-cto	2B/	-cto
4C/	si-	4E/	si-	4G/	si-
4C/	-cut	4E/	-cut	4G/	-cut
!LO:LB:g=original	!	!LO:LB:g=original	!	!LO:LB:g=original	!
=48	=48	=48	=48	=48	=48
4C/	e-	4E/	e-	4c\	e-
4D/	-rat	4F/	-rat	4c\	-rat
4E/	in	4G/	in	4c\	in
4C/	prin-	4E/	prin-	4B-X\	prin-
=49	=49	=49	=49	=49	=49
4.F\	-ci-	4.c\	-ci-	4.A/	-ci-
8F\	-pi-	8c\	-pi-	8A/	-pi-
4F\	-o	4c\	-o	4.A/	-o
4F\	et	4c\	et	.	.
.	.	.	.	8A/	et
=50	=50	=50	=50	=50	=50
2.F\	nunc	4A/	nunc	4f\	nunc
.	.	4G/	.	4e\	.
.	.	4f\	et	4d\	et
4F#X\	et	4e\	.	4c\	.
=51	=51	=51	=51	=51	=51
2G\	sem-	2e\	sem-	2c\	sem-
2G\	-per	2d\	-per	2B\	-per
=52	=52	=52	=52	=52	=52
2G\	et	4d\	et	4B\	et
.	.	4c\	.	4c\	.
2G\	in	4B\	in	4d\	in
.	.	4c\	.	4e\	.
=53	=53	=53	=53	=53	=53
4G\	sae-	4d\	sae-	4f\	sae-
4G\	-cu-	4B\	-cu-	4d\	-cu-
2C/	-la	2c\	-la	2e\	-la
!	!	!LO:LB:g=original	!	!LO:LB:g=original	!
=54	=54	=54	=54	=54	=54
2G\	sae-	4B\	sae-	4d\	Sae-
.	.	4c\	.	4e\	.
2G\	-cu-	4d\	-cu-	4f\	-cu-
.	.	4B\	.	4d\	.
!LO:LB:g=original	!	!	!	!	!
=55	=55	=55	=55	=55	=55
4C/	-lo-	2.G/	-lo-	4e\	-lo-
4D/	.	.	.	4d\	.
4E/	rum	.	.	4c\	-rum
4F/	.	4A/	-rum	4d\	.
=56	=56	=56	=56	=56	=56
2G\	a-	2c\	a-	2e\	a-
2GG/	.	2B\	.	2d\	.
=57	=57	=57	=57	=57	=57
!LO:TX:b:t=Salve sancta da Capo	!	!LO:TX:b:t=Salve sancta da Capo	!	!	!
1C	-men	1G	-men	2e\	-men
!	!	!	!	!LO:TX:b:t=Salve sancta daCapo	!
.	.	.	.	2r	.
!LO:PB:g=original	!	!LO:PB:g=original	!	!LO:PB:g=original	!
==	==	==	==	==	==
*-	*-	*-	*-	*-	*-
!!!system-decoration: [(s1,s2,s3)]
!!!ENC: Marta Chmielewska
!!!END: 2021-08-06
!!!ENC: Marcin Jachim
!!!END: 2021-07-07
